X:7
T:Dinny Delaney
Z: id:dc-slide-10
M:6/8
L:1/8
K:D Mixolydian
A2D DED|A2G E2G|A2D DED|G2A GED|!
A2D DED|c2d e2d|dcA AGE|G2A GED|!
A2D DED|A2B G2B|A2B G2A|E2G GEG|!
A2D DED|c2d e2d|dcA AGE|G2A GED|]!
dcA AGE|c3 ABc|dcA AGE|G2A GED|!
dcA AGE|c2d e2d|dcA AGE|G2A GED:|!

